public/library/lynex-icon-dark.svg

<svg width="72" height="72" viewBox="0 0 72 72" fill="none" xmlns="http://www.w3.org/2000/svg">
<path d="M32.0932 25.2523L17.9843 35.3631C17.5756 35.6646 17.5756 36.321 17.9843 36.6225L32.224 46.822C32.9433 47.3364 33.3847 48.2233 33.3847 49.1635V65.1811C33.3847 65.8197 32.7144 66.21 32.224 65.8375L7.03069 46.7688C6.37674 46.2721 5.98438 45.4739 5.98438 44.6047V27.3986C5.98438 26.5294 6.37674 25.7312 7.03069 25.2345L32.224 6.14813C32.7144 5.77563 33.3847 6.14813 33.3847 6.80445V22.6625C33.3847 23.709 32.8943 24.6846 32.0932 25.27V25.2523Z" fill="#7E7070"/>
<path d="M65.9831 27.3958V44.6019C65.9831 45.4711 65.5908 46.2693 64.9368 46.766L39.7272 65.8524C39.2367 66.2249 38.5664 65.8523 38.5664 65.196V49.1784C38.5664 48.2382 39.0078 47.3513 39.7272 46.8369L53.9668 36.6374C54.3756 36.3358 54.3756 35.6795 53.9668 35.378L39.8579 25.2672C39.0569 24.6818 38.5664 23.7062 38.5664 22.6596V6.80161C38.5664 6.16303 39.2367 5.77279 39.7272 6.14529L64.9368 25.2317C65.5908 25.7284 65.9831 26.5266 65.9831 27.3958Z" fill="#7E7070"/>
</svg>

<svg xmlns="http://www.w3.org/2000/svg" width="72" height="72" fill="none" viewBox="0 0 72 72"><path fill="#7e7070" d="M32.093 25.252 17.984 35.363c-.408.302-.408.958 0 1.26l14.24 10.199c.72.514 1.16 1.401 1.16 2.341v16.018c0 .639-.67 1.029-1.16.657L7.031 46.768a2.7 2.7 0 0 1-1.047-2.163V27.399c0-.87.393-1.668 1.047-2.165L32.224 6.149c.49-.372 1.16 0 1.16.656v15.859c0 1.046-.49 2.022-1.29 2.607zM65.983 27.396v17.206c0 .87-.392 1.667-1.046 2.164l-25.21 19.086c-.49.373-1.16 0-1.16-.656V49.178c0-.94.44-1.827 1.16-2.341l14.24-10.2c.409-.301.409-.958 0-1.259l-14.11-10.11c-.8-.586-1.29-1.562-1.29-2.608V6.802c0-.639.67-1.03 1.16-.657l25.21 19.087a2.7 2.7 0 0 1 1.046 2.164"/></svg>
